X:240
T:Adieu donc ma mie
C:trad
A:Haute Bretagne
O:France
Z:S Piron
M:2/4
L:1/8
Q:1/4=140
K:D
D|DF AA|AA Ad||
M:3/4
Q:140
dd B2 G2|BB A3 D||
M:2/4
Q:70
DF AA|AA Ad||
M:3/4
Q:140
dd B2G2|BB A3A|AF D2E2|FG FE DA|AF D2E2||
M:2/4
Q:70
FG FE|D2 z2||
W:Adieu donc ma mie je m'en vas
W:Adieu donc ma mie je m'en vas
W:Puisque ton btiment s'en va
W:Puisque ton btiment s'en va
W:Je m'en vas faire un tour  Nantes
W:Puisque le roi me le demande !
